X:1038
%%etbk:tnset id:79,pos:2,rep:3
%%etbk:site1 http://www.thesession.org/tunes/display/1395
T: Goat on the Green
T: Frog In The Well, The
Z: Piano Box Version by Martin Fleischmann (www.boxplayer.ch)
M: 6/8
L: 1/8
R: jig
K: Emin
|: "em"!1!E !3!(3E!2!E!1!E !3!GFE | !5!BEE !3!GFE | "D"!1!D !3!(3D!2!D!1!D !3!FED | !5!A2G !3!FE!1!D |
"em"!1!E !3!(3E!2!E!1!E !3!GFE | !5!BEE !3!GFE | "D"!5!BGB BA!2!F | "em"!3!G!1!EE E3:|
|: "em"!2!efe !1!B!2!B!1!B | !2!e!1!Be !3!fge | "D"!3!f!1!dd !5!add | !3!fdf !5!agf |
"em"!2!efe !1!B!2!B!1!B | !2!e!1!Be !3!fge | "D"!3!f!1!d!2!B !1!A!3!G!2!F |"em" !3!G!1!EE E3:|


